X:1
T:Title
%%score { ( 1 4 ) | ( 2 3 ) }
L:1/8
Q:1/4=100
M:6/8
K:F
V:1 treble nm="Grand Piano"
V:4 treble 
V:2 bass 
V:3 bass 
V:1
 F2 F G>AB | c2 c c3 | d2 c A>[B,EG][A,F] | .[EG]3 [EG]3 | F2 F G>AB | c2 c c3 | G>A=B c2 [Gc] | %7
w: T.~E.~Perkins * * * *|||||||
 [Fd]3 z3 | [CFA]2 [CGB] [CAc]3 | [B,FB]2 [Fc] [Fd]3 | c>Ad c>AF | [EG]2 [FA] [EG]3 | F2 F G>AB | %13
w: ||||||
 c2 c c3 | c2 [Fd] [Fc]2 [A,F] | [B,EG]3 [A,F]3 |] %16
w: |||
V:2
 z3[K:treble] .C3 | [F,A,F]2 [G,B,E] [A,CF]3 | [B,F]2 [A,CF][K:bass] [F,CF]>C,D, | z2 F C,3 | %4
 z3[K:treble] .C3 | [F,A,F]2 [G,B,E] [A,CF]3 | [G,F]->[G,CF][G,DF][K:bass] [A,CE]2 [E,C] | %7
 [F,A,]2 G, C,3 | F,2 F, F,2 _E, | D,2 [C,A,] [B,,B,]3 | [F,F]->[F,CF][F,B,F] [F,A,F]2 [D,=B,] | %11
 [C,C]3 [C,C]3 | z3[K:treble] .C3 | [F,A,F]2 [G,B,E] [A,CF]3 | [F,A,F]2 [B,,B,] z z/ A/C, | %15
 C,3 F,3 |] %16
V:3
 [F,A,]2 [A,C][K:treble] [B,E]>[A,F][G,CE] | x6 | x3[K:bass] x3 | C,3 z3 | %4
 [F,A,]2[K:treble] [A,C] [B,E]>[A,F][G,CE] | x6 | .B,3[K:bass] z3 | x6 | x6 | x6 | .A,3 z3 | x6 | %12
 [F,A,]2[K:treble] [A,C] [B,E]>[A,F][G,CE] | x6 | z3 .[C,A,]3 | x6 |] %16
V:4
 x6 | x6 | x6 | C2- [CA] C2 B, | x6 | x6 | x6 | z2 =B, [CEc]3 | x6 | x6 | x6 | x6 | x6 | x6 | x6 | %15
 x6 |] %16

